X:1
T:C minor Samuel Holyoke, 1803
T:Isaac Watts, 1717 (Psalm 50, Part 4)     10 10. 10 10. 11 11. 
T:Carthagena Transcribed from The Columbian Repository, 1803.
%%score [ 1 2 3 4 ]
L:1/8
Q:1/4=180
M:2/2
K:Eb
V:1 treble nm="Tr." snm="Tr."
V:2 treble nm="C." snm="C."
V:3 treble-8 nm="T." snm="T."
V:4 bass nm="B." snm="B."
V:1
"^2. No   more  shall  a–theists  mock his long  de – lay;        His vengeance sleeps no more; behold the day:       Behold, the""^1. The Lord, the Sovereign, sends his summons  forth,    Calls  the south nations and awakes  the   north;      From east to" G4 | %1
 G6 =B2 | c4 c4 | c2 f2 e2 d2 | e8 | c4 c2 B2 | B4 B4 | B2 e2 d2 c2 | =B8 | d4 B2 B2 | %10
"^1. west the sounding orders spread, Through distant worlds and regions of the dead:   The trumpet sounds;  hell trembles;""^2. Judge descends; his guards are nigh; Tempests  and fire  attend  him  down the sky.   When God appears,    all    nature" B6 d2 | %11
 e2 d2 e2 c2 | =B8 | c4 c2 c2 | d6 e2 | e2 d2 B2 =A2 | B8 | z2 G2 B2 =A2 | B8 | d4 d2 d2 | %20
"^1. heav'n re–joi–ces;       Lift    up  your  heads,             Lift  up your heads,  ye  saints, with cheer  –  ful    voi–ces.""^2. shall a –dore him;       Sin – ners  trem–  ble,            While sinners  trem–ble, saints   re–joice         be–fore  him." e6 e2 | %21
 e4 d2 z2 | c4 c2 c2 | (c4 =B2) z2 | e4 e2 e2 | d6 g2 | f6 g2 | (f2 e2 d2) d2 | c4 c2 z2 |] %29
V:2
 C4 | %1
"^3. \"Heav'n earth and hell draw near; let all things come   To  hear  my  jus–tice,  and  the  sinner's  doom;       But  gather""^4.   Be – hold,  my   covenant   stands   for   ev – er    good,    Sealed  by  th'e–ter–nal  sa–cri–fice  in  blood,  And signed with" E6 G2 | %2
 G4 G4 | G2 A2 G2 G2 | G8 | G4 G2 G2 | (G2 F2) F4 | G2 G2 A2 G2 | G8 | F4 F2 F2 | %10
"^3. first my saints,\" the Judge commands, \"Bring them, ye angels, from their distant lands.\"  When Christ returns, wake every""^4. all their names; the Greek,   the   Jew,    That   paid  the an–cient  worship  or  the new.\"  There's  no dis–tinc–tion here; join" G6 B2 | %11
 B2 A2 G2 A2 | G8 | G4 G2 G=A | B6 B2 | B2 A2 G2 F2 | F8 | z2 =E2 F2 F2 | F8 | B4 B2 B2 | %20
"^3. cheerful passion;        And shout, ye saints;             And shout, ye saints;  he  comes  for  your   sal   –   va – tion.""^4. all  your   voices,          And raise your heads,           And raise your heads, ye saints,  for  heav'n  re  –  joi – ces." B6 B2 | %21
 B4 B2 z2 | G4 G2 G2 | G6 z2 | B4 B2 B2 | B6 B2 | B6 B2 | A4 G4 | G4 G2 z2 |] %29
V:3
"^5. \"Here\" saith the Lord \"ye angels spread their thrones,  And near me  seat   my   favorites   and   my  sons:   Come, my re –""^6.  \"Not     for     the  want    of    goats   or  bul – locks  slain   Do   I   con – demn thee;  bulls and goats are vain   Without the" G4 | %1
 c6 d2 | e4 e4 | e2 d2 c2 =B2 | c8 | e4 e2 e2 | (e2 d2) d4 | e2 e2 f2 e2 | d8 | d4 d2 d2 | %10
"^5. –deemed, possess the joys prepared  Ere time be –gan;   'tis   your  divine  reward.\"       When Christ returns,   wake every""^6.  flame of  love;  in  vain the store   Of     brutal         offerings, that were mine  before.\"         Earth  is  the  Lord's,     all   nature" e6 f2 | %11
 g2 f2 e2 e2 | d8 | e4 e2 e2 | f6 g2 | g2 f2 e2 e2 | d8 | z2 c2 c2 c2 | d8 | f4 f2 f2 | %20
"^5.  cheerful   passion;        And shout, ye saints;              And  shout,  ye  saints;  he  comes  for your   sal – va – tion.""^6.  shall  a – dore him;       Sin –ners   trem – ble,             While  sinners tremble, saints   re – joice      be – fore  him." g6 g2 | %21
 g4 f2 z2 | e4 e2 e2 | %23
"^___________________________________________________\nEdited by B. C. Johnston, 2016: In the Bass,  Es above middle C moved down an octave, in mm. 8, 21, 25." d6 z2 | %24
 g4 g2 g2 | f6 e2 | d6 e2 | (d2 c4) =B2 | c4 c2 z2 |] %29
V:4
"^7. \"Si –  lent         I       waited   with  long-suffering  love;    But didst thou hope that I should ne'er reprove?    And cherish""^8.  Sin – ners,     a   –  wake     be–times; ye fools, be wise;    A–wake  be–fore  this  dreadful morning  rise; Change your vain" C,4 | %1
 C,6 G,2 | C4 C4 | E,2 F,2 G,2 G,2 | C,8 | C,4 C,2 E,2 | B,4 B,4 | E,2 E,2 B,2 C2 | G,8 | %9
 B,4 B,2 B,2 | %10
"^7. such an impious thought within,  That  the  All  –  Ho – ly        would indulge thy sin?\"         See, God appears;     all   nature""^8. thoughts, your crooked works amend,  Fly to the Savior, make the Judge your friend:        Then join the saints,  wake every" E,6 B,,2 | %11
 E,2 B,,2 E,2 F,2 | G,8 | C4 C2 C2 | B,6 E,2 | E,2 B,,2 E,2 F,2 | B,8 | z2 C,2 F,2 F,2 | [B,,B,]8 | %19
 B,4 B,2 B,2 | %20
"^7. joins   t'a –dore him;    Judgment proceeds,                Judgment proceeds,  and   sinners   fall     be     –   fore  him.""^8.   cheerful    passion;     When Christ returns,             When Christ returns,  he  comes for  your   sal    –   va – tion." E,6 E,2 | %21
 B,4 B,2 z2 | C4 C2 C2 | G,6 z2 | E,4 E,2 E,2 | B,6 E,2 | B,,6 E,2 | F,4 G,4 | C,4 C,2 z2 |] %29

